X: 32287
T: Pig's Will
R: reel
M: 4/4
K: Fdorian
B:CRE4.2
9: gan ainm
K:Am
d|eAGA eAGA|ecBG A2 Bc|dcBA GABc|dcBA G4|
A3B ABcd|e^fge d2 ed|cA~A2 BAGB|A2A>B A3:|
e|eaab [ac']bag|eaa^f g2 ag|eaag e^fge|dBGB d4|
A2 AG ABcd|e^fge d2 ed|cABc BAGB|A2 AB A3:|

